X: 1
T: String Quartet in B Minor opus 64 no 2 mvt 4
C: Franz Joseph Haydn
%%abc-version 2.0
%%abcx-abcm2ps-target-version 5.9.1 (29 Sep 2008)
%%abc-creator hum2abc beta
%%abcx-conversion-date 2021/02/14 14:38:10
%%abc-copyright Copyright (c) 1994, 2000 Center for Computer Assisted Research in the Humanities
%%abc-edited-by Walter Hewlett
%%abcx-initial-encoding-date 1994/11/21
%%gracespace 0 6 6
%%humdrum-veritas 3614391141
%%humdrum-veritas-data 3799943499
%%linebreak <none>
%%barnumbers 0
L: 1/8
M: 2/4
N: Derived from op64n2-04.krn
Q: "Finale: Presto"
%%staves [1 2 3 4]
V: 1 clef=treble
V: 2 clef=treble
V: 3 clef=alto
V: 4 clef=bass
K: D
[V:1]FF x2[I:setbarnb1]|
[V:2]z2 x2|
[V:3]z2 x2|
[V:4]z2 x2|
[V:1]B>c dd |
[V:2]zF/E/ DD |
[V:3]zD/C/ B,B, |
[V:4]B,,2 z2 |
[V:1]dz ff |
[V:2]zF/E/ DD |
[V:3]zD/C/ B,B, |
[V:4]B,,2 z2 |
[V:1]c>d cc |
[V:2]zG/F/ GE |
[V:3]zE/D/ EC |
[V:4]^A,,2 z2 |
[V:1]cz a/g/a/g/ |
[V:2]Cz z2 |
[V:3]^A,z z2 |
[V:4]^A,,2 z2 |
[V:1]f/e/d/c/ B/^A/c/e/ |
[V:2][E3^A,3] A, |
[V:3]C4 |
[V:4]F,4 |
[V:1]dB a/g/a/g/ |
[V:2]B,D z2 |
[V:3]D2 z2 |
[V:4]B,,2 z2 |
[V:1]f/e/d/c/ B/^A/c/e/ |
[V:2][E3^A,3] A, |
[V:3]C4 |
[V:4]F,4 |
[V:1]dB B,B, |
[V:2]B,D B,B, |
[V:3]D2 B,B, |
[V:4]B,,2 B,,B,, |
[V:1]=CE/z/ ^DF/z/ |
[V:2]=CE/z/ ^DF/z/ |
[V:3]=CE/z/ ^DF/z/ |
[V:4]=C,E,/z/ ^D,F,/z/ |
[V:1]EG/z/ F/^G/^A/F/ |
[V:2]EG/z/ F/^G/^A/F/ |
[V:3]EG/z/ F/^G/^A/F/ |
[V:4]E,G,/z/ F,/^G,/^A,/F,/ |
[V:1]Bd cf |
[V:2]Bd/z/ cf |
[V:3]Bd cF |
[V:4]B,D CF, |
[V:1]Bz FF |
[V:2]Bz z2 |
[V:3]Bz z2 |
[V:4]B,2 z2 |
[V:1]B>c dd |
[V:2]zF/E/ DD |
[V:3]zD/C/ B,B, |
[V:4]B,,2 z2 |
[V:1]dz DD |
[V:2]D2 z2 |
[V:3]B,z D,D, |
[V:4]B,,2 z2 |
[V:1]=CB, C^A, |
[V:2]z4 |
[V:3]D,4- |
[V:4]F,,4 |
[V:1]B,G, ^DD |
[V:2]z2 =CC |
[V:3]D,z A,A, |
[V:4]G,,z F,F, |
[V:1]E/F/G/F/ A/G/B/A/ |
[V:2]B,2 z2 |
[V:3]G,2 z2 |
[V:4]G,2 z2 |
[V:1]=c/B/e/^d/ f/e/g/f/ |
[V:2]z4 |
[V:3]z4 |
[V:4]z4 |
[V:1]a/g/b/a/ g/f/e/d/ |
[V:2]B4 |
[V:3]G,3 ^G, |
[V:4]G,3 ^G, |
[V:1]cz aa |
[V:2]E2 z2 |
[V:3]A,2 z2 |
[V:4]A,2 z2 |
[V:1]d'3/c'//b// aa |
[V:2]F>G AF |
[V:3]D>E FD |
[V:4]D,2 z2 |
[V:1]az e'e' |
[V:2][G4-A,4] |
[V:3]E4- |
[V:4]C,,C, C,C, |
[V:1]c'c' gg |
[V:2][G3A,3] E |
[V:3]E4 |
[V:4]C,C, C,C, |
[V:1]fd aa |
[V:2]F2 z2 |
[V:3]A,2 z2 |
[V:4]D,2 z2 |
[V:1]d'3/c'//b// aa |
[V:2]F>G AF |
[V:3]A,D/E/ FD |
[V:4]D,2 z2 |
[V:1]az ^d'/e'/d'/e'/ |
[V:2][G4-A,4] |
[V:3]E4- |
[V:4]C,,C, C,C, |
[V:1]^b/c'/b/c'/ f/g/f/g/ |
[V:2][G3A,3] E |
[V:3]E4 |
[V:4]C,C, C,C, |
[V:1]fd D/E/F/D/ |
[V:2]Fz z2 |
[V:3]D4- |
[V:4]D,2 F,,D, |
[V:1]E/F/G/E/ F/G/A/F/ |
[V:2]z4 |
[V:3]D4- |
[V:4]G,,D, A,,D, |
[V:1]G/A/B/G/ Dd |
[V:2]z2 D/E/F/D/ |
[V:3]D2 F,D |
[V:4]B,,D, z2 |
[V:1]ze zf |
[V:2]E/F/G/E/ F/G/A/F/ |
[V:3]G,E A,F |
[V:4]z4 |
[V:1]zf/g/ bb |
[V:2]Gz gg |
[V:3]B,2 z2 |
[V:4]z4 |
[V:1]b4- |
[V:2]g4- |
[V:3]z^D/E/ cc |
[V:4]z^B,/C/ EE |
[V:1]bf/g/ bb |
[V:2]g^d/e/ gg |
[V:3]c4- |
[V:4]E4- |
[V:1]b4- |
[V:2]g4- |
[V:3]c^D/E/ cc |
[V:4]E^B,/C/ EE |
[V:1]bf/g/ bb |
[V:2]g2 z2 |
[V:3]c2 z2 |
[V:4]E2 z2 |
[V:1]ba/c'/ e'e' |
[V:2]g2 z2 |
[V:3]E2 z2 |
[V:4]C2 z2 |
[V:1]e'c'/e'/ g'g' |
[V:2]zA/c/ ee |
[V:3][G2A,2] z2 |
[V:4]C2 z2 |
[V:1]g'3 e' |
[V:2]ec AA |
[V:3]A,2 C2 |
[V:4]CA,/C/ EC |
[V:1]f'd'/f'/ a'a' |
[V:2]A2 zF/A/ |
[V:3]D2 F2 |
[V:4]DD DD |
[V:1]a'3 a |
[V:2]dA/d/ fd |
[V:3]D4- |
[V:4]F,F, F,F, |
[V:1]bg/b/ d'b/d'/ |
[V:2]B4- |
[V:3]D4 |
[V:4]G,G, G,G, |
[V:1]g'g' f'e' |
[V:2]B2 z2 |
[V:3]EB AG |
[V:4]G,G, G,G, |
[V:1]f'/d'/g'/e'/ a'a' |
[V:2]de ff |
[V:3]FE DD |
[V:4]A,A, A,A, |
[V:1]e'4 |
[V:2]c4 |
[V:3]A2 G,2 |
[V:4]A,A, A,A, |
[V:1]d'z A,A, |
[V:2]d2 z2 |
[V:3]F,4 |
[V:4]D,,4- |
[V:1]B,>C DD |
[V:2]z4 |
[V:3]G,4 |
[V:4]D,,4- |
[V:1]A,2 AA |
[V:2]z2 A,2 |
[V:3]F,4 |
[V:4]D,,4- |
[V:1]A>G FE |
[V:2]B,2 C2 |
[V:3]G,4 |
[V:4]D,,4- |
[V:1]GF A,A, |
[V:2]CD z2 |
[V:3]E,F, F,F, |
[V:4]D,,4- |
[V:1]B,>C DD |
[V:2]z2 B,B, |
[V:3]G,4 |
[V:4]D,,4- |
[V:1]A,2 C/D/F/D/ |
[V:2]A,2 z2 |
[V:3]F,2 z2 |
[V:4]D,,2 z2 |
[V:1]B,B, C/D/F/D/ |
[V:2]D2 z2 |
[V:3]D2 z2 |
[V:4]G,,2 z2 |
[V:1]A,A, C/D/F/D/ |
[V:2]D2 z2 |
[V:3]D2 z2 |
[V:4]F,,2 z2 |
[V:1]G,/G/B/A/ G/F/E/D/ |
[V:2]G2 z2 |
[V:3]D2 z2 |
[V:4]E,,2 z2 |
[V:1]C/E/e/d/ c/B/A/G/ |
[V:2]G2 z2 |
[V:3]C2 z2 |
[V:4]A,,2 z2 |
[V:1]F/a/g/f/ e/d/c/B/ |
[V:2]F2 z2 |
[V:3]D2 z2 |
[V:4]D,,2 z2 |
[V:1]A/G/F/E/ D/C/B,/A,/ |
[V:2]z2 zD |
[V:3]z2 zD, |
[V:4]z2 zF,, |
[V:1]G,G, A,A, |
[V:2]G,G, A,A, |
[V:3]G,G, A,A, |
[V:4]G,,G,, A,,A,, |
[V:1]Dz FF |
[V:2]A,A, z2 |
[V:3]F,F, z2 |
[V:4]D,D, z2 |
[V:1]z2 AA |
[V:2]A,A, z2 |
[V:3]F,F, z2 |
[V:4]D,D, z2 |
[V:1]z2 dd |
[V:2]A,A, z2 |
[V:3]F,F, z2 |
[V:4]D,D, z2 |
[V:1]z2 ff |
[V:2]A,A, z2 |
[V:3]F,F, z2 |
[V:4]D,D, z2 |
[V:1]z2 |
[V:2]A,A, |
[V:3]F,F, |
[V:4]D,D, |
[V:1]aa x2[I:setbarnb65] |
[V:2]dd x2|
[V:3]FF x2|
[V:4]z2 x2|
[V:1]a>b =c'c' |
[V:2]d3 F |
[V:3]F>G AA |
[V:4]z4 |
[V:1]bz GG |
[V:2]Gz GG |
[V:3]Gz GG |
[V:4]z2 G,G, |
[V:1]D>E D/=C/B,/A,/ |
[V:2]D>E D/=C/B,/A,/ |
[V:3]D>E D/=C/B,/A,/ |
[V:4]D,>E, D,/=C,/B,,/A,,/ |
[V:1]G,z ff |
[V:2]G,z BB |
[V:3]G,z ^DD |
[V:4]G,,z z2 |
[V:1]f>g aa |
[V:2]B3 ^D |
[V:3]^D>E FF |
[V:4]z4 |
[V:1]gz ee |
[V:2]Ez ee |
[V:3]Ez ee |
[V:4]z2 EE |
[V:1]B>=c B/A/G/F/ |
[V:2]B>=c B/A/G/F/ |
[V:3]B>=c B/A/G/F/ |
[V:4]B,>=C B,/A,/G,/F,/ |
[V:1]Ez gg |
[V:2]Ez ^AA |
[V:3]Ez EE |
[V:4]E,z z2 |
[V:1]g^A ff |
[V:2]^Az BB |
[V:3]Ez ^DD |
[V:4]z4 |
[V:1]fB aa |
[V:2]Bz ^BB |
[V:3]^Dz FF |
[V:4]z4 |
[V:1]a^B ^gg |
[V:2]^Bz cc |
[V:3]Fz ^EE |
[V:4]z4 |
[V:1]^gc z2 |
[V:2]cz z2 |
[V:3]^Ez z2 |
[V:4]z4 |
[V:1]z4 |
[V:2]z4 |
[V:3]z4 |
[V:4]z4 |
[V:1]z2 CC |
[V:2]z2 CC |
[V:3]z2 CC |
[V:4]z2 C,C, |
[V:1]F>^G AA |
[V:2]A,C/B,/ A,A, |
[V:3]F,A,/^G,/ F,F, |
[V:4]F,,F, F,F, |
[V:1]Az cc |
[V:2]zC/B,/ A,A, |
[V:3]zA,/^G,/ F,F, |
[V:4]F,,F, F,F, |
[V:1]^G>A GG |
[V:2]zD/C/ B,B, |
[V:3]^G,4- |
[V:4]^E,,^E, E,E, |
[V:1]^Gz cc |
[V:2]C/^D/C/^B,/ C/B,/C/B,/ |
[V:3]G,4 |
[V:4]E,,E, E,E, |
[V:1]^^F>^G FF |
[V:2]C/^D/C/^B,/ C/B,/C/B,/ |
[V:3]^A,4- |
[V:4]^D,,^D, D,D, |
[V:1]^^Fz ee |
[V:2]C/^D/C/^B,/ C/B,/C/B,/ |
[V:3]A,2 ^A,A, |
[V:4]^D,,^D, D,D, |
[V:1]e^^F ee |
[V:2]Cz z2 |
[V:3]^A,2 z2 |
[V:4]^D,2 z2 |
[V:1]e^^F z2 |
[V:2]C2 z2 |
[V:3]^A,2 z2 |
[V:4]^D,2 z2 |
[V:1]z4 |
[V:2]z4 |
[V:3]z4 |
[V:4]z4 |
[V:1]z2 ^DD |
[V:2]z2 ^DD |
[V:3]z2 ^DD |
[V:4]z2 ^D,D, |
[V:1]^G>^A BB |
[V:2]^G>^A BB |
[V:3]^G>^A BB |
[V:4]^G,>^A, B,B, |
[V:1]Bz B,B, |
[V:2]Bz z2 |
[V:3]Bz z2 |
[V:4]B,z z2 |
[V:1]F>^G AA |
[V:2]F4- |
[V:3]B,4- |
[V:4]^D,4- |
[V:1]Az z2 |
[V:2]Fz z2 |
[V:3]B,z z2 |
[V:4]D,z z2 |
[V:1]z4 |
[V:2]z4 |
[V:3]z4 |
[V:4]z4 |
[V:1]z2 BB |
[V:2]z2 BB |
[V:3]z2 B,B, |
[V:4]z2 B,B, |
[V:1]e>f gg |
[V:2]e>f gg |
[V:3]E>F GG |
[V:4]E>F GG |
[V:1]gz G,G, |
[V:2]gz z2 |
[V:3]Gz z2 |
[V:4]Gz z2 |
[V:1]D>E =FF |
[V:2]D4- |
[V:3]G,4- |
[V:4]B,,4- |
[V:1]=Fz gg |
[V:2]Dz z2 |
[V:3]G,z z2 |
[V:4]B,,z z2 |
[V:1]Bz gg |
[V:2]GG z2 |
[V:3]=FF z2 |
[V:4]z4 |
[V:1]=cz gg |
[V:2]GG z2 |
[V:3]EE z2 |
[V:4]z4 |
[V:1]^gz gg |
[V:2]=FF z2 |
[V:3]DD z2 |
[V:4]z4 |
[V:1]az aa |
[V:2]EE z2 |
[V:3]CC z2 |
[V:4]z4 |
[V:1]cz aa |
[V:2]AA z2 |
[V:3]GG z2 |
[V:4]z4 |
[V:1]dz aa |
[V:2]AA z2 |
[V:3]FF z2 |
[V:4]z4 |
[V:1]^a2 aa |
[V:2]GG z2 |
[V:3]EE z2 |
[V:4]z4 |
[V:1]bz bb |
[V:2]FF ff |
[V:3]^DD DD |
[V:4]z2 B,,B,, |
[V:1]bz bb |
[V:2]g>f ee |
[V:3]E2 z2 |
[V:4]E,>F, G,G, |
[V:1]B,z bb |
[V:2]ez gg |
[V:3]z2 EE |
[V:4]G,z B,,B,, |
[V:1]^Dz bb |
[V:2]a>g ff |
[V:3]F>E ^DD |
[V:4]F,>G, A,A, |
[V:1]B,z bb |
[V:2]fz ff |
[V:3]^Dz DD |
[V:4]A,z B,,B,, |
[V:1]b>c' d'd' |
[V:2]^g>f ^ee |
[V:3]^E>F ^GG |
[V:4]^G,>A, B,B, |
[V:1]d'2 ^ee |
[V:2]^e2 ^GG |
[V:3]^GB dD |
[V:4]B,B, B,B, |
[V:1]f>a c'c' |
[V:2]F/^G/F/^E/ F/E/F/E/ |
[V:3]C4- |
[V:4]A,A, A,A, |
[V:1]c'z c'c' |
[V:2]F/^G/F/^E/ F/E/F/E/ |
[V:3]C4 |
[V:4]A,A, A,A, |
[V:1]^b>^d' f'f' |
[V:2]F/^G/F/E/ ^D/E/D/C/ |
[V:3]^D4- |
[V:4]^G,G, G,G, |
[V:1]f'z ^bb |
[V:2]^B,/C/^D/E/ F/A/^G/F/ |
[V:3]D4 |
[V:4]^G,G, G,G, |
[V:1]c'>^d' e'e' |
[V:2]E/F/E/^D/ C/^B,/C/B,/ |
[V:3]E4- |
[V:4]^G,G, G,G, |
[V:1]e'z ^gg |
[V:2]C/^B,/C/^D/ E/e/^d/c/ |
[V:3]E4 |
[V:4]^G,G, G,G, |
[V:1]f/^g/a/f/ ^d/e/f/d/ |
[V:2]^B4 |
[V:3]^D2 F2 |
[V:4]^G,,4- |
[V:1]e/f/^g/e/ c/^d/e/c/ |
[V:2]c2 E2 |
[V:3]E2 ^G2 |
[V:4]G,,4- |
[V:1]^B/c/^d/B/ F/^G/A/F/ |
[V:2]^D2 ^B,2 |
[V:3]F2 ^D2 |
[V:4]G,,4- |
[V:1]E/F/^G/E/ C/^D/E/C/ |
[V:2]C2 E2 |
[V:3]E2 C2 |
[V:4]G,,4 |
[V:1]^B,/C/^D/B,/ ^G,G, |
[V:2]^G^G, G,G, |
[V:3]^G,^G G,G, |
[V:4]^G,,^G, G,,G,, |
[V:1]^G,2 z2 |
[V:2]^G,2 z2 |
[V:3]^G,2 z2 |
[V:4]^G,,2 z2 |
[V:1]A,4- |
[V:2]A,4 |
[V:3]A,4 |
[V:4]A,,4- |
[V:1]A,2 EE |
[V:2]C4 |
[V:3]G,4 |
[V:4]A,,4- |
[V:1]F>G AA |
[V:2]D>E FF |
[V:3]F,>E, D,D, |
[V:4]A,,4- |
[V:1]Az FF |
[V:2]Fz DD |
[V:3]D,2 F,F, |
[V:4]A,,4 |
[V:1]E>F GG |
[V:2]C>D EE |
[V:3]G,>F, E,D, |
[V:4]^A,,4- |
[V:1]Gz z2 |
[V:2]Ez z2 |
[V:3]C,z z2 |
[V:4]A,,z z2 |
[V:1]z4 |
[V:2]z4 |
[V:3]z4 |
[V:4]z4 |
[V:1]z2 FF |
[V:2]z4 |
[V:3]z4 |
[V:4]z4 |
[V:1]B>c dd |
[V:2]zF/E/ DD |
[V:3]zD/C/ B,B, |
[V:4]B,,2 z2 |
[V:1]dz ff |
[V:2]zF/E/ DD |
[V:3]zD/C/ B,B, |
[V:4]B,,2 z2 |
[V:1]c>d cc |
[V:2]zG/F/ GE |
[V:3]zE/D/ EC |
[V:4]^A,,2 z2 |
[V:1]cz a/g/a/g/ |
[V:2]Cz z2 |
[V:3]^A,z z2 |
[V:4]^A,,2 z2 |
[V:1]f/e/d/c/ B/^A/c/e/ |
[V:2][=E3^A,3] A, |
[V:3]C4 |
[V:4]F,4 |
[V:1]dB a/g/a/g/ |
[V:2]B,D z2 |
[V:3]D2 z2 |
[V:4]B,,2 z2 |
[V:1]f/e/d/c/ B/^A/c/e/ |
[V:2][E3^A,3] A, |
[V:3]C4 |
[V:4]F,4 |
[V:1]dB z2 |
[V:2]B,D z2 |
[V:3]Dz D,B, |
[V:4]B,,z B,/C/D/B,/ |
[V:1]z4 |
[V:2]C/D/E/C/ ^Dz |
[V:3]E,B, F,B, |
[V:4]Cz ^D/E/F/D/ |
[V:1]z4 |
[V:2]E/F/G/E/ Fz |
[V:3]G,B, F/G/A/F/ |
[V:4]Ez ^D,B, |
[V:1]z4 |
[V:2]G/A/B/G/ Ez |
[V:3]Gz ^A/B/c/A/ |
[V:4]E,G, C,E, |
[V:1]z2 c/d/e/c/ |
[V:2]B/c/d/B/ Fz |
[V:3]Bz ^A,F |
[V:4]D,B, z2 |
[V:1]dz ^d/e/f/d/ |
[V:2]d/e/f/d/ BA |
[V:3]B,D z2 |
[V:4]z4 |
[V:1]e/f/g/e/ f/g/a/f/ |
[V:2]GE ^DB, |
[V:3]z4 |
[V:4]z4 |
[V:1]g/a/b/g/ ^a/b/c'/a/ |
[V:2]EG CE |
[V:3]z4 |
[V:4]z4 |
[V:1]b/c'/d'/b/ ff |
[V:2]B,B, B,B, |
[V:3]F,F, F,F, |
[V:4]D,D, D,D, |
[V:1]b/c'/d'/b/ ff |
[V:2]B,B, B,B, |
[V:3]F,F, F,F, |
[V:4]D,D, D,D, |
[V:1]g/a/b/g/ e/f/g/e/ |
[V:2]B,B, B,B, |
[V:3]G,G, G,G, |
[V:4]E,E, E,E, |
[V:1]c/d/e/c/ ^A/B/c/A/ |
[V:2]CC CC |
[V:3]G,G, G,G, |
[V:4]E,E, E,E, |
[V:1]B/c/d/B/ ^EE |
[V:2]DD DD |
[V:3]^G,G, G,G, |
[V:4]^E,E, E,E, |
[V:1]B/c/d/B/ ^EE |
[V:2]DD DD |
[V:3]^G,G, G,G, |
[V:4]^E,E, E,E, |
[V:1]z2 FF |
[V:2]DD z2 |
[V:3]B,B, z2 |
[V:4]F,F, z2 |
[V:1]z2 FF |
[V:2]DD z2 |
[V:3]B,B, z2 |
[V:4]F,F, z2 |
[V:1]z2 FF |
[V:2]CC z2 |
[V:3]B,B, z2 |
[V:4]F,F, z2 |
[V:1]z2 FF ||
[V:2]CC z2 ||
[V:3]^A,A, z2 ||
[V:4]F,F, z2 ||
[V:1][K:B]B >cd d|
[V:2][K:B]D F/E/D D|
[V:3][K:B]B, D/C/B, B,|
[V:4][K:B]B,,2 z2 |
[V:1]dz ff |
[V:2]zF/E/ DD |
[V:3]zD/C/ B,B, |
[V:4]B,,2 z2 |
[V:1]c>d cc |
[V:2]zG/F/ GE |
[V:3]zE/D/ EC |
[V:4]A,,2 z2 |
[V:1]cz ^^f/g/f/g/ |
[V:2]Cz z2 |
[V:3]A,z z2 |
[V:4]A,,2 z2 |
[V:1]f/e/d/c/ B/A/c/e/ |
[V:2][=E3A,3] A, |
[V:3]C4 |
[V:4]F,4 |
[V:1]dB ^^f/g/f/g/ |
[V:2]B,D z2 |
[V:3]D2 z2 |
[V:4]B,,2 z2 |
[V:1]f/e/d/c/ B/A/c/e/ |
[V:2][=E3A,3] A, |
[V:3]C4 |
[V:4]F,4 |
[V:1]dB DB,/z/ |
[V:2]B,D DB,/z/ |
[V:3]Dz DB,/z/ |
[V:4]B,,z D,B,,/z/ |
[V:1]EC/z/ FD/z/ |
[V:2]EC/z/ FD/z/ |
[V:3]EC/z/ FD/z/ |
[V:4]E,C,/z/ F,D,/z/ |
[V:1]GE/z/ e/d/c/B/ |
[V:2]GE/z/ z2 |
[V:3]GE/z/ z2 |
[V:4]G,E,/z/ z2 |
[V:1]AA g/f/e/d/ |
[V:2]EE e/d/c/B/ |
[V:3]CC z2 |
[V:4]F,F, z2 |
[V:1]cc a/c'/e'/c'/ |
[V:2]AA z2 |
[V:3]EE z2 |
[V:4]F,F, z2 |
[V:1]aa ee |
[V:2]AA cc |
[V:3]EE FF |
[V:4]F,F, A,A, |
[V:1]dd gg |
[V:2]BB ee |
[V:3]FF BB |
[V:4]B,B, E,E, |
[V:1]ff AA |
[V:2]dd cc |
[V:3]BB EE |
[V:4]F,F, F,F, |
[V:1]Bz FF |
[V:2]B2 z2 |
[V:3]D2 D,2 |
[V:4]B,,4- |
[V:1]G>A BB |
[V:2]z4 |
[V:3]E,4 |
[V:4]B,,4- |
[V:1]Fz ff |
[V:2]z2 F2 |
[V:3]D,4 |
[V:4]B,,4- |
[V:1]f>e dc |
[V:2]G2 A2 |
[V:3]E,4 |
[V:4]B,,4- |
[V:1]dB FF |
[V:2]B2 z2 |
[V:3]D,4 |
[V:4]B,,4- |
[V:1]G>A BB |
[V:2]z2 G2 |
[V:3]E,4 |
[V:4]B,,4- |
[V:1]Fz A/B/d/B/ |
[V:2]F2 z2 |
[V:3]D,2 z2 |
[V:4]B,,2 z2 |
[V:1]GG A/B/d/B/ |
[V:2]B,B, z2 |
[V:3]EE z2 |
[V:4]E,E, z2 |
[V:1]FF A/B/d/B/ |
[V:2]B,B, z2 |
[V:3]DD z2 |
[V:4]D,D, z2 |
[V:1]EE A/B/d/B/ |
[V:2]B,B, z2 |
[V:3]EE z2 |
[V:4]C,C, z2 |
[V:1]DF Bd |
[V:2]D4 |
[V:3]F4- |
[V:4]B,,B,, B,,B,, |
[V:1]fb d'b |
[V:2]B,D FB |
[V:3]F4 |
[V:4]D,D, D,D, |
[V:1]^^f/g/f/g/ a/b/a/b/ |
[V:2]B2 z2 |
[V:3]G2 z2 |
[V:4]E,2 z2 |
[V:1]^^f/g/f/g/ d/e/^B/c/ |
[V:2]c2 z2 |
[V:3]G2 z2 |
[V:4]E,2 z2 |
[V:1]F4 |
[V:2]B4 |
[V:3]DD DD |
[V:4]F,F, F,F, |
[V:1]c4 |
[V:2]A4 |
[V:3]EE EE |
[V:4]F,,F,, F,,F,, |
[V:1]B/f/g/f/ e/d/c/B/ |
[V:2]B2 z2 |
[V:3]D2 z2 |
[V:4]B,,2 z2 |
[V:1]A/c/e/g/ f/e/d/c/ |
[V:2][E2A,2] z2 |
[V:3]C2 z2 |
[V:4]F,2 z2 |
[V:1]B/f/g/f/ e/d/c/B/ |
[V:2][D2=B,2] z2 |
[V:3]B,2 z2 |
[V:4]B,,2 z2 |
[V:1]A/c/e/g/ f/e/d/c/ |
[V:2][=E2A,2] z2 |
[V:3]C2 z2 |
[V:4]F,2 z2 |
[V:1]Bz dd |
[V:2][DB,]z BB |
[V:3]DD z2 |
[V:4]B,,B,, z2 |
[V:1]z2 ff |
[V:2]z2 dd |
[V:3][FD][FD] z2 |
[V:4]B,,B,, z2 |
[V:1]z2 bb |
[V:2]z2 ff |
[V:3][FD][FD] z2 |
[V:4]B,,B,, z2 |
[V:1]z2 d'd' |
[V:2]z2 bb |
[V:3][FD][FD] z2 |
[V:4]B,,B,, z2 |
[V:1]z2 f'f' |
[V:2]z2 d'd' |
[V:3][FD][FD] z2 |
[V:4]B,,B,, z2 |
[V:1]z2 b'b' |
[V:2]z2 d'd' |
[V:3][FD][FD] z2 |
[V:4]B,,B,, z2 |
[V:1]b'2 z2 |
[V:2]d'2 z2 |
[V:3]z4 |
[V:4]z4 |
[V:1]z4 |
[V:2]z4 |
[V:3]z4 |
[V:4]z4 |
[V:1]z2 :|]
[V:2]z2 :|]
[V:3]z2 :|]
[V:4]z2 :|]

